X:47
M:9/4
L:1/4
Q:3/4=85
K:F
g>de/f/ e>cd/e/dBd | fcffcfe2d | GDFECEDB,G, | (g3g2)a/g/f2d ||
gdB cA/B/cBAF | C3F2A/B/c2B/A/ | bg/a/baf/g/de/f/gf | D3G2cc/d/c/B/A ||
g/f/g/a/gb>agde/f/g | A>BccA/B/cB2A | d2c/B/c2A/F/GDB, | G,3G2A/B/c/d/c/B/A ||

